brandFactory_export/2.Regular/Estomago _2Regular.svg

<?xml version="1.0" encoding="UTF-8"?>
<svg width="24px" height="24px" viewBox="0 0 24 24" version="1.1" xmlns="http://www.w3.org/2000/svg" xmlns:xlink="http://www.w3.org/1999/xlink">
    <title>2.Regular/Estomago _2Regular</title>
    <g id="Symbols" stroke="none" stroke-width="1" fill="none" fill-rule="evenodd">
        <g id="2.Regular/Estomago-_2Regular" fill="#5CB615" fill-rule="nonzero">
            <path d="M6.32605042,16.0941176 C6.45042017,16.0941176 6.58151261,16.107563 6.71932773,16.1411765 C7.29747899,16.2823529 8.23193277,16.8134454 7.95294118,18.789916 C7.85546218,19.4890756 7.90252101,20.107563 8.09411765,20.6252101 C8.28907563,21.1563025 8.57815126,21.5092437 8.94789916,21.6705882 C11.4319328,22.7596639 14.8571429,21.9932773 17.8823529,19.6705882 C20.087395,17.9663866 21.5159664,15.6470588 21.912605,13.1361345 C21.9226891,13.0789916 21.9361345,13.0218487 21.9596639,12.9680672 C22.0235294,12.712605 22.0773109,12.4470588 22.1109244,12.1781513 C22.5848739,8.56806723 19.9394958,7.73109244 18.7798319,7.5394958 C18.6756303,7.52941176 18.497479,7.50252101 18.3361345,7.4789916 C18.1747899,7.45882353 17.794958,7.42521008 17.3546218,7.46218487 C17.1361345,7.47563025 16.9310924,7.40504202 16.7798319,7.25714286 C16.4168067,6.90756303 16.1008403,6.4907563 15.8453782,6.01680672 C15.1731092,4.77983193 15.0218487,3.34789916 15.4151261,1.98655462 C15.4218487,1.96302521 15.4319328,1.93613445 15.4386555,1.91260504 C15.4487395,1.8789916 15.4621849,1.80840336 15.4420168,1.76806723 C15.4218487,1.72436975 15.3344538,1.65378151 15.1529412,1.58991597 C15.0184874,1.54621849 14.605042,1.40504202 14.4537815,1.76134454 C14,3.31764706 14.1815126,5.01848739 14.9815126,6.4907563 C15.1193277,6.74621849 15.2773109,6.98823529 15.4453782,7.22016807 C15.6806723,7.5394958 15.6235294,7.98655462 15.3210084,8.24201681 C14.6151261,8.8302521 14.1747899,9.77142857 14.0033613,11.0386555 C13.9663866,11.2705882 13.9495798,11.4789916 13.9495798,11.6605042 C13.9495798,11.7042017 13.9462185,11.7478992 13.9394958,11.7882353 C13.8991597,12.0268908 13.9462185,12.3596639 13.989916,12.6857143 C14.0806723,13.3445378 14.1983193,14.1613445 13.6336134,14.7932773 C13.1596639,15.3210084 12.3462185,15.5394958 11.0756303,15.492437 C11.005042,15.4890756 10.9344538,15.4756303 10.8672269,15.4521008 C10.6991597,15.394958 10.507563,15.3411765 10.2991597,15.2840336 C9.57983193,15.1260504 8.44705882,14.9647059 7.79831933,14.9915966 C7.76806723,14.994958 7.73781513,14.9915966 7.70756303,14.9915966 C7.6907563,14.994958 7.67394958,14.9915966 7.65714286,14.9915966 C6.68571429,14.9344538 5.70420168,15.1294118 4.79327731,15.5495798 C3.27731092,16.2521008 2.12773109,17.5058824 1.54957983,19.0789916 C1.4487395,19.3478992 1.65378151,19.4655462 1.7512605,19.5226891 C2.04705882,19.6941176 2.21176471,19.7210084 2.55798319,19.2436975 C2.67563025,19.0823529 2.78991597,18.9176471 2.90420168,18.7529412 C3.50252101,17.8957983 4.11764706,17.0084034 5.17310924,16.4672269 L5.2907563,16.4067227 C5.53613445,16.2823529 5.88235294,16.0941176 6.32605042,16.0941176 M11.4016807,23.6571429 C10.3193277,23.6571429 9.28739496,23.4588235 8.35966387,23.0487395 C7.61344538,22.7193277 7.04201681,22.0638655 6.70588235,21.1529412 C6.42689076,20.3966387 6.35294118,19.5327731 6.48403361,18.5815126 C6.55798319,18.0369748 6.51428571,17.6336134 6.37647059,17.6 C6.29915966,17.5831933 6.23865546,17.6033613 6.00336134,17.7344538 L5.85210084,17.8151261 C5.12941176,18.1882353 4.66218487,18.8537815 4.12436975,19.6235294 C4.00672269,19.794958 3.88571429,19.9663866 3.76134454,20.1378151 C2.74285714,21.5428571 1.59663866,21.1731092 1.00840336,20.8336134 C-0.0806722689,20.2016807 -0.087394958,19.1058824 0.171428571,18.5210084 C0.867226891,16.6184874 2.29579832,15.0655462 4.17478992,14.194958 C5.30084034,13.6773109 6.53109244,13.4386555 7.73109244,13.502521 L7.75462185,13.502521 C8.58823529,13.4722689 9.82184874,13.6537815 10.6521008,13.8386555 C10.8773109,13.8991597 11.0655462,13.9495798 11.2336134,14.0033613 C12.292437,14.0336134 12.5042017,13.8218487 12.5277311,13.794958 C12.6252101,13.6840336 12.5613445,13.2336134 12.5142857,12.9042017 C12.4571429,12.507563 12.3932773,12.0571429 12.4571429,11.6067227 C12.4605042,11.3680672 12.487395,11.102521 12.5277311,10.8302521 C12.7058824,9.4789916 13.1596639,8.38655462 13.8756303,7.57310924 C13.8016807,7.45546218 13.7344538,7.34117647 13.6705882,7.22352941 C12.6789916,5.39495798 12.4571429,3.28739496 13.0420168,1.2907563 C13.3008403,0.551260504 14.1882353,-0.315966387 15.6268908,0.178151261 C16.3462185,0.423529412 16.6621849,0.853781513 16.8,1.17310924 C17.0453782,1.73445378 16.897479,2.25210084 16.8302521,2.44369748 C16.5579832,3.41176471 16.6689076,4.42689076 17.1462185,5.30420168 C17.2773109,5.54285714 17.4252101,5.76134454 17.589916,5.95294118 C17.9764706,5.94285714 18.302521,5.9697479 18.5344538,5.99663866 C18.692437,6.02016807 18.8403361,6.04369748 18.9647059,6.05714286 C21.5663866,6.48403361 24.107563,8.36638655 23.5798319,12.3764706 C23.5327731,12.7361345 23.4621849,13.0957983 23.3714286,13.4352941 C23.3680672,13.4453782 23.3680672,13.4521008 23.3647059,13.4621849 C22.8907563,16.3193277 21.2672269,18.9445378 18.7831933,20.8638655 C16.4134454,22.692437 13.7815126,23.6571429 11.4016807,23.6571429" id="Estomago-_2Regular"></path>
        </g>
    </g>
</svg>

<svg width="24" height="24" viewBox="0 0 24 24" xmlns="http://www.w3.org/2000/svg"><path d="M6.326 16.094c.124 0 .256.014.393.047.578.141 1.513.672 1.234 2.649-.098.7-.05 1.318.141 1.835.195.531.484.884.854 1.046 2.484 1.089 5.91.322 8.934-2 2.205-1.705 3.634-4.024 4.03-6.535a.736.736 0 01.048-.168c.064-.255.117-.52.15-.79.475-3.61-2.17-4.447-3.33-4.639-.104-.01-.283-.036-.444-.06a4.967 4.967 0 00-.981-.017.744.744 0 01-.575-.205 5.03 5.03 0 01-.935-1.24 5.306 5.306 0 01-.43-4.03l.024-.074c.01-.034.023-.105.003-.145-.02-.044-.108-.114-.29-.178-.134-.044-.547-.185-.698.171a6.248 6.248 0 00.528 4.73c.137.255.295.497.463.73a.754.754 0 01-.124 1.021c-.706.588-1.146 1.53-1.318 2.797-.037.232-.053.44-.053.622a.787.787 0 01-.01.127c-.04.239.006.572.05.898.09.659.208 1.475-.356 2.107-.474.528-1.288.746-2.558.7a.739.739 0 01-.209-.04 10.2 10.2 0 00-.568-.169c-.72-.158-1.852-.32-2.5-.292-.03.003-.061 0-.091 0-.017.003-.034 0-.05 0a6 6 0 00-2.865.558 6.226 6.226 0 00-3.243 3.529c-.101.269.104.387.201.444.296.171.46.198.807-.28.118-.16.232-.325.346-.49.599-.857 1.214-1.745 2.27-2.286l.117-.06c.245-.125.591-.313 1.035-.313m5.076 7.563c-1.083 0-2.115-.198-3.042-.608-.747-.33-1.318-.985-1.654-1.896-.28-.756-.353-1.62-.222-2.571.074-.545.03-.948-.108-.982-.077-.017-.137.003-.373.134l-.15.081c-.724.373-1.19 1.039-1.729 1.809-.117.171-.238.342-.363.514-1.018 1.405-2.164 1.035-2.753.696-1.089-.632-1.095-1.728-.837-2.313a7.673 7.673 0 014.004-4.326 7.59 7.59 0 013.556-.692h.024c.833-.03 2.067.15 2.897.336.225.06.414.11.582.164 1.058.03 1.27-.181 1.294-.208.097-.111.033-.561-.014-.89-.057-.397-.12-.848-.057-1.298.004-.239.03-.504.07-.777.179-1.351.633-2.443 1.349-3.257a7.78 7.78 0 01-.834-6.282c.259-.74 1.146-1.607 2.585-1.113.72.246 1.035.676 1.173.995.245.561.097 1.08.03 1.27a3.798 3.798 0 00.76 3.51c.386-.01.713.017.944.044.158.023.306.047.43.06 2.602.427 5.144 2.31 4.616 6.32-.047.36-.118.719-.209 1.058l-.006.027c-.474 2.857-2.098 5.483-4.582 7.402-2.37 1.828-5.001 2.793-7.381 2.793" fill="#5CB615" fill-rule="nonzero"/></svg>
